X:67
T: Guanggun kuqi
N: C1565
O: China, Liaoning, Haicheng
S: III, 300]
R: Xiaodiao]
M: 4/4
L: 1/16
K: F
d4e4d2edc2d2 | A2A2G2D2F8
z2e2e2e2d4c2d2 | A2A2G2D2F8
d2f2A4d2f2A2c2 | d2c2d4A4A2A2 | A2G2F2F2G8 | f8
d2g2e2d2c6d2 | A2A2G2D2F8
A2G4F2G8 | A2G4D2F8
g2e2d2c2d8 | A2A2G2D2F8
A4c4g2e2d2c2 | A2c2G2D2F8
e2d4c2d4z4 | A2A2G2D2F8
A2c2A2c2d2f2A2c2 | d2c2d2f2c8
d3cd2f2A8 | d3cd2f2A8
G4A4G4A3c | A2G2F2F2G8 | f8

